!!!ONB: MCCC : ICA0053_07 : Extracted Monophonic Melody
!!!COM: Alkan, Charles-Valentin
!!!OPR: 25 Préludes dans tous les tons majeurs et mineurs pour piano ou orgue
!!!OMV: 7
!!!SCT: Op.31
!!!ODT: 1844///
**kern
*staff1
*IPiano
=1
*clefG2
*k[b-e-a-]
*E-:
*M2/4
8b-
16b-
16b-
8ee-
16ee-
16ee-
=2
8cc
16cc
16cc
8a-
16a-
16a-
=3
8f
16f
16f
8b-
16b-
16b-
=4
8g
16f
16g
16a-
16b-
16cc
16dd
=5
8b-
16b-
16b-
8ee-
16ee-
16ee-
=6
8cc
16cc
16cc
8a-
16a-
16a-
=7
8f
16f
16f
8b-
16b-
16b-
=8
8g
16a-
16b-
16cc
16dd
16ee-
16ff
=9
8gg
16gg
16gg
8ff
16ff
16ff
=10
8ee-
16f
16g
16a
16b
16cc
16dd
=11
8ee-
16ee-
16ee-
8dd
16dd
16dd
=12
8cc
16d
16e-
16f
16g
16a-
16b-
=13
8cc
16cc
16cc
8b-
16b-
16b-
=14
8a-
16a-
16a-
8cc
16cc
16cc
=15
8ff
16ff
16ff
8ee-
16ee-
16ee-
=16
8dd
16dd
16dd
8ee-
16ee-
16ee-
=17
8cc
16cc
16cc
8ee-
16ee-
16ee-
=18
8b-
16b-
16b-
8ee-
16ee-
16ee-
=19
8cc
16cc
16cc
8ee-
16ee-
16ee-
=20
8b-
16b-
16b-
8ee-
16ee-
16ee-
=21
8cc
16cc
16cc
8a-
16a-
16a-
=22
8f
16f
16f
8b-
16b-
16b-
=23
8g
16f
16g
16a-
16b-
16cc
16dd
=24
8b-
16b-
16b-
8ee-
16ee-
16ee-
=25
8cc
16cc
16cc
8a-
16a-
16a-
=26
8f
16f
16f
8b-
16b-
16b-
=27
8g
16a-
16b-
16cc
16dd
16ee-
16ff
=28
8gg
16gg
16gg
8ff
16ff
16ff
=29
8ee-
16f
16g
16a
16b
16cc
16dd
=30
8ee-
16ee-
16ee-
8dd
16dd
16dd
=31
8cc
16d
16e-
16f
16g
16a-
16b-
=32
8cc
16cc
16cc
8b-
16b-
16b-
=33
8a-
16a-
16a-
8cc
16cc
16cc
=34
8ff
16ff
16ff
8ee-
16ee-
16ee-
=35
8dd
16dd
16dd
8ee-
16ee-
16ee-
=36
8cc
16cc
16cc
8ee-
16ee-
16ee-
=37
8b-
16b-
16b-
8ee-
16ee-
16ee-
=38
8cc
16cc
16cc
8ee-
16ee-
16ee-
=39
8b-
16b-
16b-
8ee-
16ee-
16ee-
=40
8cc
16cc
16cc
8a-
16a-
16a-
=41
8f
16f
16f
8b-
16b-
16b-
=42
8g
16a-
16b-
16cc
16dd
16ee-
16ff
=43
8gg
16gg
16gg
8ee-
16ee-
16ee-
=44
8cc-
16cc-
16cc-
8a-
16a-
16a-
=45
8f
16f
16f
8b-
16b-
16b-
=46
8e-
16bb-
16gg
16gg
16ee-
16ee-
16b-
=47
[2b-
=48
8b-]
16bb-
16gg
16gg
16ee-
16ee-
16b-
=49
[2b-
=50
8b-]
16bb-
16gg
16gg
16ee-
16gg
16ee-
=51
16ee-
16cc
16ccc
16aa-
16aa-
16ff
16aa-
16ff
=52
16ff
16dd
16gg
16ee-
16aa-
16ff
16bb-
16gg
=53
16ccc
16aa-
16ddd
16bb-
16eee-
16ccc
16fff
16ddd
=54
16ggg
16eee-
16eee-
16bb-
16eee-
16ccc
16ccc
16aa-
=55
16bb-
16gg
16gg
16ee-
16bb-
16ff
16ff
16dd
=56
16gg
16ee-
16bb-
16gg
16gg
16ee-
16ee-
16b-
=57
[2b-
=58
8b-]
16bb-
16gg
16gg
16ee-
16ee-
16b-
=59
[2b-
=60
8b-]
16eee-
16ccc
16ccc
16aa-
16ccc
16aa-
=61
16aa-
16ff
16fff
16ddd-
16ddd-
16bb-
16ddd-
16bb-
=62
16bb-
16gg
16ccc
16aa-
16ddd-
16bb-
16eee-
16ccc
=63
16fff
16ddd-
16ggg
16eee-
16aaa-
16fff
16bbb-
16ggg
=64
16cccc
16aaa-
16aaa-
16eee-
16eee-
16ccc
16ccc
16aa-
=65
16bb-
16gg
16gg
16ee-
16bb-
16ff
16ff
16dd
=66
16gg
16ee-
16ee-
16b-
16ee-
16b-
16b-
16g
=67
16aa-
16ee-
16ee-
16cc
16ee-
16cc
16cc
16a-
=68
16aa-
16ff
16ff
16dd
16ff
16dd
16dd
16a-
=69
16gg
16ee-
16ee-
16b-
16ff
16dd
16dd
16b-
=70
16gg
16ee-
16ee-
16b-
16ee-
16b-
16b-
16g
=71
16aa-
16ee-
16ee-
16cc
16ee-
16cc
16cc
16a-
=72
16aa-
16ff
16ff
16dd
16ff
16dd
16dd
16a-
=73
16bb-
16gg
16gg
16ee-
16gg
16ee-
16ee-
16b-
=74
16aa-
16ff
16ff
16dd
16ff
16dd
16dd
16a-
=75
16bb-
16gg
16gg
16ee-
16gg
16ee-
16ee-
16b-
=76
16aa-
16ff
16ff
16dd
16ff
16dd
16dd
16a-
=77
16bb-
16gg
16gg
16ee-
16gg
16ee-
16ee-
16b-
=78
16ee-
16b-
16b-
16g
16b-
16g
16g
16e-
=79
8g
16g
16g
4r
=80
8gg
16gg
16gg
4r
=81
8ggg
16ggg
16ggg
4r
==
*-
